germany/municipalities/07232284.svg

<?xml version="1.0" encoding="UTF-8" standalone="no"?>
<!-- Created with Inkscape (http://www.inkscape.org/) -->

<svg
   xmlns:dc="http://purl.org/dc/elements/1.1/"
   xmlns:cc="http://creativecommons.org/ns#"
   xmlns:rdf="http://www.w3.org/1999/02/22-rdf-syntax-ns#"
   xmlns:svg="http://www.w3.org/2000/svg"
   xmlns="http://www.w3.org/2000/svg"
   xmlns:sodipodi="http://sodipodi.sourceforge.net/DTD/sodipodi-0.dtd"
   xmlns:inkscape="http://www.inkscape.org/namespaces/inkscape"
   width="189.9352mm"
   height="209.14957mm"
   viewBox="0 0 189.9352 209.14957"
   version="1.1"
   id="svg3370"
   inkscape:version="0.92.4 (5da689c313, 2019-01-14)"
   sodipodi:docname="DEU Oberlauch COA.svg">
  <defs
     id="defs3364" />
  <sodipodi:namedview
     id="base"
     pagecolor="#ffffff"
     bordercolor="#666666"
     borderopacity="1.0"
     inkscape:pageopacity="0.0"
     inkscape:pageshadow="2"
     inkscape:zoom="0.69324393"
     inkscape:cx="358.93267"
     inkscape:cy="395.24328"
     inkscape:document-units="mm"
     inkscape:current-layer="layer1"
     showgrid="false"
     inkscape:window-width="1366"
     inkscape:window-height="745"
     inkscape:window-x="-8"
     inkscape:window-y="-8"
     inkscape:window-maximized="1"
     fit-margin-top="0"
     fit-margin-left="0"
     fit-margin-right="0"
     fit-margin-bottom="0"
     inkscape:snap-midpoints="true"
     inkscape:snap-smooth-nodes="true"
     inkscape:snap-nodes="false" />
  <metadata
     id="metadata3367">
    <rdf:RDF>
      <cc:Work
         rdf:about="">
        <dc:format>image/svg+xml</dc:format>
        <dc:type
           rdf:resource="http://purl.org/dc/dcmitype/StillImage" />
        <dc:title></dc:title>
      </cc:Work>
    </rdf:RDF>
  </metadata>
  <g
     inkscape:label="Ebene 1"
     inkscape:groupmode="layer"
     id="layer1"
     transform="translate(-4.347865,-7.7926941)">
    <path
       style="fill:#ff0000;fill-opacity:1;fill-rule:evenodd;stroke:none;stroke-width:2.9104166;stroke-linecap:round;stroke-linejoin:round;stroke-miterlimit:4;stroke-dasharray:none;stroke-opacity:1"
       inkscape:connector-curvature="0"
       d="M 192.82786,9.2479003 192.40032,126.82857 c -2.08156,49.45938 -43.20889,88.63079 -93.084858,88.65848 C 49.484374,215.42635 8.3416529,176.24089 6.2306129,126.82857 L 5.8030729,9.2479003 H 99.313224 Z"
       id="path10563-0-6-2-0"
       sodipodi:nodetypes="ccccccc" />
    <path
       style="fill:#ffffff;stroke:#000000;stroke-width:1.41812336;stroke-linecap:round;stroke-linejoin:round;stroke-miterlimit:4;stroke-dasharray:none;stroke-opacity:1"
       d="m 57.99331,110.04537 -3.49048,12.15067 v 54.38893 h 3.49048 3.49108 v -54.38893 z"
       id="path4590"
       inkscape:connector-curvature="0" />
    <path
       inkscape:connector-curvature="0"
       style="fill:#ffffff;stroke:#000000;stroke-width:1.41812336;stroke-linecap:round;stroke-linejoin:round;stroke-miterlimit:4;stroke-dasharray:none;stroke-opacity:1"
       d="m 51.01176,113.22039 -3.49047,12.15067 v 54.38893 h 3.49047 3.49107 v -54.38893 z"
       id="path4590-8" />
    <path
       inkscape:connector-curvature="0"
       style="fill:#ffffff;stroke:#000000;stroke-width:1.41812336;stroke-linecap:round;stroke-linejoin:round;stroke-miterlimit:4;stroke-dasharray:none;stroke-opacity:1"
       d="m 64.97485,106.87034 -3.49048,12.15068 v 54.38893 h 3.49048 3.49108 v -54.38893 z"
       id="path4590-1" />
    <path
       inkscape:connector-curvature="0"
       style="fill:#ffffff;stroke:#000000;stroke-width:1.41812336;stroke-linecap:round;stroke-linejoin:round;stroke-miterlimit:4;stroke-dasharray:none;stroke-opacity:1"
       d="m 44.03023,116.39542 -3.49048,12.15068 v 54.38893 h 3.49048 3.49107 V 128.5461 Z"
       id="path4590-6" />
    <path
       inkscape:connector-curvature="0"
       style="fill:#ffffff;stroke:#000000;stroke-width:1.41812336;stroke-linecap:round;stroke-linejoin:round;stroke-miterlimit:4;stroke-dasharray:none;stroke-opacity:1"
       d="m 37.04868,119.57044 -3.49048,12.15067 v 54.38893 h 3.49048 3.49106 v -54.38893 z"
       id="path4590-8-6" />
    <path
       style="fill:#ffffff;stroke:#000000;stroke-width:5.35983658;stroke-linecap:round;stroke-linejoin:round;stroke-miterlimit:4;stroke-dasharray:none;stroke-opacity:1"
       d="M 97.207031 434.4668 L 84.013672 480.39062 L 84.013672 653.29102 C 92.263881 663.52006 101.0705 673.28485 110.40039 682.52734 L 110.40039 480.39062 L 97.207031 434.4668 z M 620.6582 434.4668 L 607.46484 480.39062 L 607.46484 682.74219 C 616.79508 673.50633 625.60162 663.74949 633.85156 653.52539 L 633.85156 480.39062 L 620.6582 434.4668 z M 44.433594 458.4668 L 31.240234 504.39062 L 31.240234 563.04492 C 38.557946 581.46121 47.412844 599.1006 57.626953 615.82812 L 57.626953 504.39062 L 44.433594 458.4668 z M 673.43164 458.4668 L 660.23828 504.39062 L 660.23828 616.08008 C 670.45412 599.35229 679.30734 581.70736 686.625 563.28516 L 686.625 504.39062 L 673.43164 458.4668 z "
       transform="matrix(0.26458333,0,0,0.26458333,4.347865,7.7926941)"
       id="path4590-0" />
    <path
       style="fill:#ffffff;stroke:#000000;stroke-width:5.35983658;stroke-linecap:round;stroke-linejoin:round;stroke-miterlimit:4;stroke-dasharray:none;stroke-opacity:1"
       d="M 70.820312 446.4668 L 57.626953 492.39062 L 57.626953 615.82812 C 65.610836 628.90323 74.432778 641.41212 84.013672 653.29102 L 84.013672 492.39062 L 70.820312 446.4668 z M 647.04492 446.4668 L 633.85156 492.39062 L 633.85156 653.52539 C 643.43159 641.65292 652.2556 629.1512 660.23828 616.08008 L 660.23828 492.39062 L 647.04492 446.4668 z M 18.046875 470.4668 L 11.621094 492.83594 C 15.718505 517.19263 22.355428 540.68477 31.240234 563.04492 L 31.240234 516.39062 L 18.046875 470.4668 z M 699.82031 470.4668 L 686.625 516.39062 L 686.625 563.28516 C 695.52668 540.87517 702.17206 517.325 706.26562 492.90234 L 699.82031 470.4668 z "
       transform="matrix(0.26458333,0,0,0.26458333,4.347865,7.7926941)"
       id="path4590-8-8" />
    <path
       style="fill:#ffffff;stroke:#000000;stroke-width:1.41812336;stroke-linecap:round;stroke-linejoin:round;stroke-miterlimit:4;stroke-dasharray:none;stroke-opacity:1"
       d="m 140.63764,110.04537 3.49048,12.15067 v 54.38893 h -3.49048 -3.49108 v -54.38893 z"
       id="path4590-64"
       inkscape:connector-curvature="0" />
    <path
       inkscape:connector-curvature="0"
       style="fill:#ffffff;stroke:#000000;stroke-width:1.41812336;stroke-linecap:round;stroke-linejoin:round;stroke-miterlimit:4;stroke-dasharray:none;stroke-opacity:1"
       d="m 147.61919,113.22039 3.49047,12.15067 v 54.38893 h -3.49047 -3.49107 v -54.38893 z"
       id="path4590-8-7" />
    <path
       inkscape:connector-curvature="0"
       style="fill:#ffffff;stroke:#000000;stroke-width:1.41812336;stroke-linecap:round;stroke-linejoin:round;stroke-miterlimit:4;stroke-dasharray:none;stroke-opacity:1"
       d="m 133.6561,106.87034 3.49048,12.15068 v 54.38893 h -3.49048 -3.49108 v -54.38893 z"
       id="path4590-1-0" />
    <path
       inkscape:connector-curvature="0"
       style="fill:#ffffff;stroke:#000000;stroke-width:1.41812336;stroke-linecap:round;stroke-linejoin:round;stroke-miterlimit:4;stroke-dasharray:none;stroke-opacity:1"
       d="m 154.60072,116.39542 3.49048,12.15068 v 54.38893 h -3.49048 -3.49107 V 128.5461 Z"
       id="path4590-6-6" />
    <path
       inkscape:connector-curvature="0"
       style="fill:#ffffff;stroke:#000000;stroke-width:1.41812336;stroke-linecap:round;stroke-linejoin:round;stroke-miterlimit:4;stroke-dasharray:none;stroke-opacity:1"
       d="m 161.58227,119.57044 3.49048,12.15067 v 54.38893 h -3.49048 -3.49106 v -54.38893 z"
       id="path4590-8-6-0" />
    <rect
       style="fill:#ffffff;fill-opacity:1;stroke:#000000;stroke-width:2.11666656;stroke-linecap:round;stroke-linejoin:round;stroke-miterlimit:4;stroke-dasharray:none;stroke-opacity:1"
       id="rect4321"
       width="59.708416"
       height="117.71945"
       x="69.461266"
       y="53.910973" />
    <path
       style="fill:#ffffff;stroke:#000000;stroke-width:2.11666656;stroke-linecap:round;stroke-linejoin:round;stroke-miterlimit:4;stroke-dasharray:none;stroke-opacity:1"
       d="m 65.886806,49.952558 3.57446,3.958415 h 29.85399 29.854514 l 3.57445,-3.958415 H 99.315256 Z"
       id="path4323"
       inkscape:connector-curvature="0" />
    <path
       style="fill:#ffffff;fill-opacity:1;stroke:#000000;stroke-width:2.11666656;stroke-linecap:round;stroke-linejoin:round;stroke-miterlimit:4;stroke-dasharray:none;stroke-opacity:1"
       d="m 65.88676,32.138495 v 17.813899 h 66.85742 V 32.138495 h -9.56945 v 7.563361 h -9.4542 v -7.563361 h -9.67848 v 7.563361 h -9.45369 v -7.563361 h -9.67847 v 7.563361 H 75.4562 v -7.563361 z"
       id="rect4341"
       inkscape:connector-curvature="0" />
    <rect
       y="68.462502"
       x="81.277946"
       height="12.240623"
       width="6.4686227"
       id="rect4368"
       style="fill:#000000;fill-opacity:1;stroke:#000000;stroke-width:0.26458332;stroke-linecap:round;stroke-linejoin:round;stroke-miterlimit:4;stroke-dasharray:none;stroke-opacity:1" />
    <path
       inkscape:connector-curvature="0"
       id="rect4368-2"
       d="m 84.313269,70.353216 v 10.349756 h 3.433384 V 70.353216 Z"
       style="fill:#ffffff;fill-opacity:1;stroke:#000000;stroke-width:0.26458332;stroke-linecap:round;stroke-linejoin:round;stroke-miterlimit:4;stroke-dasharray:none;stroke-opacity:1" />
    <rect
       style="fill:#000000;fill-opacity:1;stroke:#000000;stroke-width:0.26458332;stroke-linecap:round;stroke-linejoin:round;stroke-miterlimit:4;stroke-dasharray:none;stroke-opacity:1"
       id="rect4368-6"
       width="6.4686227"
       height="12.240623"
       x="110.88428"
       y="68.462502" />
    <path
       style="fill:#ffffff;fill-opacity:1;stroke:#000000;stroke-width:0.26458332;stroke-linecap:round;stroke-linejoin:round;stroke-miterlimit:4;stroke-dasharray:none;stroke-opacity:1"
       d="m 113.91961,70.353216 v 10.349756 h 3.43338 V 70.353216 Z"
       id="rect4368-2-1"
       inkscape:connector-curvature="0" />
    <rect
       style="fill:#000000;fill-opacity:1;stroke:#000000;stroke-width:0.32473144;stroke-linecap:round;stroke-linejoin:round;stroke-miterlimit:4;stroke-dasharray:none;stroke-opacity:1"
       id="rect4368-5"
       width="7.9391446"
       height="15.023303"
       x="95.34584"
       y="101.73118" />
    <path
       style="fill:#ffffff;fill-opacity:1;stroke:#000000;stroke-width:0.32473144;stroke-linecap:round;stroke-linejoin:round;stroke-miterlimit:4;stroke-dasharray:none;stroke-opacity:1"
       d="m 99.071181,104.05171 v 12.70258 h 4.213899 v -12.70258 z"
       id="rect4368-2-8"
       inkscape:connector-curvature="0" />
    <path
       style="fill:#000000;stroke:#000000;stroke-width:0.26458332px;stroke-linecap:butt;stroke-linejoin:miter;stroke-opacity:1"
       d="m 95.34594,116.75452 -1.4056,0.87178 v 1.92029 h 5.37487 5.37538 v -1.92029 l -1.4056,-0.87178 h -3.96978 z"
       id="path4436"
       inkscape:connector-curvature="0" />
    <path
       inkscape:connector-curvature="0"
       style="fill:none;fill-opacity:1;stroke:#000000;stroke-width:1.32291663;stroke-linecap:round;stroke-linejoin:round;stroke-miterlimit:4;stroke-dasharray:none;stroke-opacity:1"
       d="m 69.461212,150.10287 v 7.2409 h 9.272818 c 0.925729,0 1.671217,-0.7455 1.671217,-1.67121 v -3.89899 c 0,-0.92573 -0.745488,-1.6707 -1.671217,-1.6707 z m 50.435168,0 c -0.92573,0 -1.67122,0.74497 -1.67122,1.6707 v 3.89899 c 0,0.92571 0.74549,1.67121 1.67122,1.67121 h 9.27333 v -7.2409 z"
       id="rect4454" />
    <path
       inkscape:connector-curvature="0"
       style="fill:none;fill-opacity:1;stroke:#000000;stroke-width:1.47777677;stroke-linecap:round;stroke-linejoin:round;stroke-miterlimit:4;stroke-dasharray:none;stroke-opacity:1"
       d="m 69.461212,157.42128 v 9.98234 h 11.338325 c 0.91159,0 1.645377,-0.73379 1.645377,-1.64538 v -6.69158 c 0,-0.91158 -0.733787,-1.64538 -1.645377,-1.64538 z m 48.370168,0 c -0.91158,0 -1.64589,0.7338 -1.64589,1.64538 v 6.69158 c 0,0.91159 0.73431,1.64538 1.64589,1.64538 h 11.33833 v -9.98234 z"
       id="rect4497" />
    <path
       style="fill:#009900;fill-opacity:1;stroke:#000000;stroke-width:11;stroke-linecap:round;stroke-linejoin:round;stroke-miterlimit:4;stroke-dasharray:none;stroke-opacity:1"
       d="M 358.93164 579.80664 C 305.054 579.82554 254.02209 593.0946 219.83594 615.96875 C 204.77953 609.40159 187.68755 605.62786 169.6875 604.89648 C 153.89874 604.28197 137.71291 606.0185 121.95508 610.01758 C 102.18853 615.03412 84.347308 623.21316 69.214844 633.56836 C 132.95851 725.03207 239.31471 784.84062 358.93359 784.98633 C 478.67308 784.91985 585.05366 725.14819 648.76367 633.64844 C 633.60737 623.25668 615.7275 615.04676 595.91211 610.01758 C 580.15428 606.0185 563.96844 604.28197 548.17969 604.89648 C 530.16933 605.62847 513.06826 609.40628 498.00586 615.98047 C 463.82865 593.10514 412.80528 579.83374 358.93164 579.80664 z "
       transform="matrix(0.26458333,0,0,0.26458333,4.347865,7.7926941)"
       id="path4205" />
    <path
       style="fill:none;fill-rule:evenodd;stroke:#000000;stroke-width:2.9104166;stroke-linecap:round;stroke-linejoin:round;stroke-miterlimit:4;stroke-dasharray:none;stroke-opacity:1"
       inkscape:connector-curvature="0"
       d="M 192.82786,9.2479024 192.40032,126.82857 c -2.08156,49.45938 -43.20889,88.63079 -93.084859,88.65848 C 49.484373,215.42635 8.3416528,176.24089 6.2306128,126.82857 L 5.8030728,9.2479024 H 99.313223 Z"
       id="path10563-0-6-2"
       sodipodi:nodetypes="ccccccc" />
    <g
       id="g4394" />
  </g>
</svg>

<svg xmlns="http://www.w3.org/2000/svg" width="717.865" height="790.487" viewBox="0 0 189.935 209.15"><path style="fill:red;fill-opacity:1;fill-rule:evenodd;stroke:none;stroke-width:2.9104166;stroke-linecap:round;stroke-linejoin:round;stroke-miterlimit:4;stroke-dasharray:none;stroke-opacity:1" d="m192.828 9.248-.428 117.58c-2.081 49.46-43.209 88.631-93.085 88.659-49.83-.06-90.973-39.246-93.084-88.658L5.803 9.248h93.51z" transform="translate(-4.348 -7.793)"/><path style="fill:#fff;stroke:#000;stroke-width:1.41812336;stroke-linecap:round;stroke-linejoin:round;stroke-miterlimit:4;stroke-dasharray:none;stroke-opacity:1" d="m57.993 110.045-3.49 12.151v54.389h6.981v-54.389zM51.012 113.22l-3.49 12.151v54.389h6.98v-54.389zM64.975 106.87l-3.49 12.151v54.389h6.98V119.02zM44.03 116.395l-3.49 12.151v54.389h6.981v-54.389zM37.049 119.57l-3.49 12.151v54.389h6.98v-54.389z" transform="translate(-4.348 -7.793)"/><path style="fill:#fff;stroke:#000;stroke-width:5.35983658;stroke-linecap:round;stroke-linejoin:round;stroke-miterlimit:4;stroke-dasharray:none;stroke-opacity:1" d="M97.207 434.467 84.014 480.39v172.9a353.783 353.783 0 0 0 26.386 29.236V480.391l-13.193-45.924zm523.451 0-13.193 45.924v202.351a353.138 353.138 0 0 0 26.387-29.217V480.391l-13.194-45.924zm-576.224 24L31.24 504.39v58.654a347.555 347.555 0 0 0 26.387 52.783V504.391l-13.193-45.924zm628.998 0-13.194 45.924v111.69a347.255 347.255 0 0 0 26.387-52.796v-58.894l-13.193-45.924z" transform="scale(.26458)"/><path style="fill:#fff;stroke:#000;stroke-width:5.35983658;stroke-linecap:round;stroke-linejoin:round;stroke-miterlimit:4;stroke-dasharray:none;stroke-opacity:1" d="M70.82 446.467 57.627 492.39v123.437a351.296 351.296 0 0 0 26.387 37.463v-160.9L70.82 446.467zm576.225 0-13.193 45.924v161.134a350.779 350.779 0 0 0 26.386-37.445V492.39l-13.193-45.923zm-628.998 24-6.426 22.369a345.04 345.04 0 0 0 19.62 70.209V516.39l-13.194-45.924zm681.773 0-13.195 45.924v46.894a345.073 345.073 0 0 0 19.64-70.383l-6.445-22.435z" transform="scale(.26458)"/><path style="fill:#fff;stroke:#000;stroke-width:1.41812336;stroke-linecap:round;stroke-linejoin:round;stroke-miterlimit:4;stroke-dasharray:none;stroke-opacity:1" d="m140.638 110.045 3.49 12.151v54.389h-6.981v-54.389zM147.62 113.22l3.49 12.151v54.389h-6.982v-54.389zM133.656 106.87l3.49 12.151v54.389h-6.981V119.02zM154.6 116.395l3.491 12.151v54.389h-6.981v-54.389zM161.582 119.57l3.49 12.151v54.389h-6.98v-54.389z" transform="translate(-4.348 -7.793)"/><path style="fill:#fff;fill-opacity:1;stroke:#000;stroke-width:2.11666656;stroke-linecap:round;stroke-linejoin:round;stroke-miterlimit:4;stroke-dasharray:none;stroke-opacity:1" d="M69.461 53.911h59.708V171.63H69.461z" transform="translate(-4.348 -7.793)"/><path style="fill:#fff;stroke:#000;stroke-width:2.11666656;stroke-linecap:round;stroke-linejoin:round;stroke-miterlimit:4;stroke-dasharray:none;stroke-opacity:1" d="m65.887 49.953 3.574 3.958h59.709l3.574-3.958H99.315z" transform="translate(-4.348 -7.793)"/><path style="fill:#fff;fill-opacity:1;stroke:#000;stroke-width:2.11666656;stroke-linecap:round;stroke-linejoin:round;stroke-miterlimit:4;stroke-dasharray:none;stroke-opacity:1" d="M65.887 32.138v17.814h66.857V32.138h-9.57v7.564h-9.453v-7.564h-9.679v7.564h-9.454v-7.564H84.91v7.564h-9.454v-7.564z" transform="translate(-4.348 -7.793)"/><path style="fill:#000;fill-opacity:1;stroke:#000;stroke-width:.26458332;stroke-linecap:round;stroke-linejoin:round;stroke-miterlimit:4;stroke-dasharray:none;stroke-opacity:1" d="M81.278 68.463h6.469v12.241h-6.469z" transform="translate(-4.348 -7.793)"/><path d="M84.313 70.353v10.35h3.434v-10.35z" style="fill:#fff;fill-opacity:1;stroke:#000;stroke-width:.26458332;stroke-linecap:round;stroke-linejoin:round;stroke-miterlimit:4;stroke-dasharray:none;stroke-opacity:1" transform="translate(-4.348 -7.793)"/><path style="fill:#000;fill-opacity:1;stroke:#000;stroke-width:.26458332;stroke-linecap:round;stroke-linejoin:round;stroke-miterlimit:4;stroke-dasharray:none;stroke-opacity:1" d="M110.884 68.463h6.469v12.241h-6.469z" transform="translate(-4.348 -7.793)"/><path style="fill:#fff;fill-opacity:1;stroke:#000;stroke-width:.26458332;stroke-linecap:round;stroke-linejoin:round;stroke-miterlimit:4;stroke-dasharray:none;stroke-opacity:1" d="M113.92 70.353v10.35h3.433v-10.35z" transform="translate(-4.348 -7.793)"/><path style="fill:#000;fill-opacity:1;stroke:#000;stroke-width:.32473144;stroke-linecap:round;stroke-linejoin:round;stroke-miterlimit:4;stroke-dasharray:none;stroke-opacity:1" d="M95.346 101.731h7.939v15.023h-7.939z" transform="translate(-4.348 -7.793)"/><path style="fill:#fff;fill-opacity:1;stroke:#000;stroke-width:.32473144;stroke-linecap:round;stroke-linejoin:round;stroke-miterlimit:4;stroke-dasharray:none;stroke-opacity:1" d="M99.071 104.052v12.702h4.214v-12.702z" transform="translate(-4.348 -7.793)"/><path style="fill:#000;stroke:#000;stroke-width:.26458332px;stroke-linecap:butt;stroke-linejoin:miter;stroke-opacity:1" d="m95.346 116.755-1.406.871v1.92H104.691v-1.92l-1.406-.871h-3.97z" transform="translate(-4.348 -7.793)"/><path style="fill:none;fill-opacity:1;stroke:#000;stroke-width:1.32291663;stroke-linecap:round;stroke-linejoin:round;stroke-miterlimit:4;stroke-dasharray:none;stroke-opacity:1" d="M69.461 150.103v7.24h9.273c.926 0 1.671-.745 1.671-1.67v-3.9c0-.925-.745-1.67-1.671-1.67zm50.435 0c-.925 0-1.67.745-1.67 1.67v3.9c0 .925.745 1.67 1.67 1.67h9.274v-7.24z" transform="translate(-4.348 -7.793)"/><path style="fill:none;fill-opacity:1;stroke:#000;stroke-width:1.47777677;stroke-linecap:round;stroke-linejoin:round;stroke-miterlimit:4;stroke-dasharray:none;stroke-opacity:1" d="M69.461 157.421v9.983H80.8c.911 0 1.645-.734 1.645-1.646v-6.691c0-.912-.734-1.646-1.645-1.646zm48.37 0c-.911 0-1.646.734-1.646 1.646v6.691c0 .912.735 1.646 1.646 1.646h11.339v-9.983z" transform="translate(-4.348 -7.793)"/><path style="fill:#090;fill-opacity:1;stroke:#000;stroke-width:11;stroke-linecap:round;stroke-linejoin:round;stroke-miterlimit:4;stroke-dasharray:none;stroke-opacity:1" d="M358.932 579.807c-53.878.019-104.91 13.288-139.096 36.162-15.056-6.567-32.148-10.341-50.149-11.073-15.788-.614-31.974 1.123-47.732 5.122-19.766 5.016-37.608 13.195-52.74 23.55 63.744 91.464 170.1 151.273 289.719 151.418 119.74-.066 226.12-59.838 289.83-151.338-15.157-10.391-33.037-18.601-52.852-23.63-15.758-4-31.944-5.736-47.732-5.122-18.01.732-35.112 4.51-50.174 11.084-34.177-22.875-85.2-36.146-139.074-36.173z" transform="scale(.26458)"/><path style="fill:none;fill-rule:evenodd;stroke:#000;stroke-width:2.9104166;stroke-linecap:round;stroke-linejoin:round;stroke-miterlimit:4;stroke-dasharray:none;stroke-opacity:1" d="m192.828 9.248-.428 117.58c-2.081 49.46-43.209 88.631-93.085 88.659-49.83-.06-90.973-39.246-93.084-88.658L5.803 9.248h93.51z" transform="translate(-4.348 -7.793)"/></svg>
